X: 1
T: Valse des po\^eles   [A]
T: Waltz of the Stoves
C: Simon Riopel
O: Qu\'ebec
S: http://pascalgemme.com/tradquebec/valse-des-poeles-valse-beaulieu/ via ECD list 2018-4-13
N: Pascal Gemme recommends A,EAe tuning for the fiddle.
R: waltz
Z: 2018 John Chambers <jc:trillian.mit.edu>
M: 3/4
L: 1/8
K: A
B |\
"A"cd cB AE | "D"F3 G FE | "A"AG AB cA | "E7"Bc dc B2- |\
"A"Bc cB AE | "D"F3 G FE | "A"AG Ac "E7"BG | "A"A2 A3 :|
|: A |\
"A"AE Ac ec | "D"f3 g fe | "A"ef ec Ac | "E7"Bc BG FE |\
"A"AE Ac ec | "D"f3 g af | "A"ec Ac "E7"BG | "A"A2 A3 :|
